X: 2313
M: 6/8
L: 1/8
K: D
ud |\
vA2vA AFA | vd2vd def | vg2ve uf2ud | efd uB2ud |\
vA2vA AFA | vd2vd def | afd ue2f | d3- d2 :|
|: uf |\
vg2vg gab | vf2vf fga | e2e ede | f2dB2d |\


